SeaMapSymbols/Harbour.svg

<?xml version="1.0" encoding="UTF-8" standalone="no"?>
<!-- Generator: Adobe Illustrator 14.0.0, SVG Export Plug-In . SVG Version: 6.00 Build 43363)  -->

<svg
   xmlns:dc="http://purl.org/dc/elements/1.1/"
   xmlns:cc="http://creativecommons.org/ns#"
   xmlns:rdf="http://www.w3.org/1999/02/22-rdf-syntax-ns#"
   xmlns:svg="http://www.w3.org/2000/svg"
   xmlns="http://www.w3.org/2000/svg"
   xmlns:sodipodi="http://sodipodi.sourceforge.net/DTD/sodipodi-0.dtd"
   xmlns:inkscape="http://www.inkscape.org/namespaces/inkscape"
   version="1.1"
   id="svg8829"
   sodipodi:version="0.32"
   inkscape:version="0.48.1 r9760"
   sodipodi:docname="Harbour.svg"
   inkscape:export-xdpi="89.361702"
   inkscape:export-ydpi="89.361702"
   inkscape:export-filename="C:\Dokumente und Einstellungen\rolf\Eigene Dateien\Eigene Karten\Harbour.png"
   inkscape:output_extension="org.inkscape.output.svg.inkscape"
   x="0px"
   y="0px"
   width="160"
   height="160"
   viewBox="0 0 160 160"
   enable-background="new 0 0 320 320"
   xml:space="preserve"><metadata
   id="metadata14"><rdf:RDF><cc:Work
       rdf:about=""><dc:format>image/svg+xml</dc:format><dc:type
         rdf:resource="http://purl.org/dc/dcmitype/StillImage" /></cc:Work></rdf:RDF></metadata>
<sodipodi:namedview
   id="base"
   inkscape:window-height="1088"
   inkscape:pageshadow="2"
   inkscape:pageopacity="0.0"
   inkscape:window-width="1920"
   inkscape:window-x="0"
   inkscape:window-y="0"
   inkscape:current-layer="g2415"
   showgrid="true"
   guidetolerance="10.0"
   inkscape:zoom="2.0820366"
   gridtolerance="10.0"
   objecttolerance="10.0"
   borderopacity="1.0"
   bordercolor="#666666"
   inkscape:cx="92.641647"
   pagecolor="#ffffff"
   inkscape:cy="117.85248"
   inkscape:window-maximized="1">
	<inkscape:grid
   type="xygrid"
   id="grid3611"
   empspacing="5"
   visible="true"
   enabled="true"
   snapvisiblegridlinesonly="true" /></sodipodi:namedview>
<defs
   id="defs4">
	
	
		<inkscape:perspective
   id="perspective15"
   inkscape:persp3d-origin="90 : 60 : 1"
   sodipodi:type="inkscape:persp3d"
   inkscape:vp_x="0 : 90 : 1"
   inkscape:vp_y="0 : 1000 : 0"
   inkscape:vp_z="180 : 90 : 1">
		</inkscape:perspective>
</defs>
<g
   id="g2415"
   transform="translate(0,-160)">
	<path
   id="path2421"
   d="m 152.4997,240.0003 c 0,40.02455 -32.47592,72.50002 -72.50001,72.50002 -40.024086,0 -72.5000157,-32.47547 -72.5000157,-72.50002 0,-40.02452 32.4759297,-72.5 72.5000157,-72.5 40.02409,0 72.50001,32.47548 72.50001,72.5 z"
   style="fill:none;stroke:#a30075;stroke-width:15;stroke-miterlimit:4;stroke-dasharray:none"
   inkscape:connector-curvature="0" />
	<path
   id="path2417"
   d="m 126.28048,252.22903 -4.21262,23.74576 -5.77482,-5.3352 c -2.87994,3.1949 -6.15952,5.90545 -10.0973,8.37546 -6.653607,4.17239 -13.935937,6.53189 -21.259876,7.21265 l -0.748377,6.9489 -7.699292,0 -0.769883,-6.9489 C 63.862493,285.08626 52.555459,279.60805 44.262506,270.39812 l -6.412882,5.57667 -3.442273,-24.07362 16.838321,12.40297 -4.289279,3.7331 c 7.313653,6.29089 17.443193,10.49577 28.796507,11.39482 l 1.517801,-63.64851 -16.071244,0 0,-4.82019 16.036647,0.176 0,-4.00756 c -4.959598,-1.08569 -8.643065,-5.09325 -8.643065,-9.87955 0,-5.63053 5.078804,-10.1865 11.348638,-10.1865 6.259566,0 11.342095,4.55597 11.342095,10.1865 0,4.67717 -3.518456,8.62854 -8.306502,9.82661 l 0,3.94023 16.510176,-0.0557 0,4.82019 -16.070306,0 1.550507,63.64851 c 11.273387,-0.89997 21.325793,-5.07237 28.618893,-11.30752 l -4.14578,-3.82132 16.83972,-12.07419 z"
   style="fill:#a30075;stroke:#a30075;stroke-width:4.90096569"
   inkscape:connector-curvature="0" />
	
		<ellipse
   id="ellipse2419"
   inkscape:transform-center-x="2.5400948"
   sodipodi:ry="10.449"
   sodipodi:rx="11.553"
   sodipodi:cy="69.002998"
   sodipodi:cx="160.02299"
   cx="160.02299"
   cy="69.002998"
   rx="11.553"
   ry="10.449"
   transform="matrix(0.46744538,0,0,0.46437406,5.1513481,165.20951)"
   style="fill:none;stroke:#ffffff;stroke-width:10.51918983"
   d="m 171.576,69.002998 c 0,5.770824 -5.17246,10.449001 -11.55301,10.449001 -6.38054,0 -11.553,-4.678177 -11.553,-10.449001 0,-5.770823 5.17246,-10.449 11.553,-10.449 6.38055,0 11.55301,4.678177 11.55301,10.449 z">
	</ellipse>
</g>
<g
   id="g2409"
   transform="matrix(0.46744538,0,0,0.46437406,5.1513481,5.2095143)">
	<path
   id="path2411"
   d="m 259.13,187.391 -9.012,51.135 -12.354,-11.489 c -6.161,6.88 -13.177,12.717 -21.601,18.036 -14.234,8.985 -29.813,14.066 -45.481,15.532 l -1.601,14.964 -16.471,0 -1.647,-14.964 C 125.6,258.147 101.411,246.35 83.67,226.517 l -13.719,12.009 -7.364,-51.841 36.022,26.709 -9.176,8.039 c 15.646,13.547 37.316,22.602 61.604,24.538 l 3.247,-137.063 -34.381,0 0,-10.38 34.307,0.379 0,-8.63 C 143.6,87.939 135.72,79.309 135.72,69.002 c 0,-12.125 10.865,-21.936 24.278,-21.936 13.391,0 24.264,9.811 24.264,21.936 0,10.072 -7.527,18.581 -17.77,21.161 l 0,8.485 35.32,-0.12 0,10.38 -34.379,0 3.317,137.063 c 24.117,-1.938 45.622,-10.923 61.224,-24.35 l -8.869,-8.229 36.025,-26.001 z M 171.576,69.003 c 0,-5.767 -5.173,-10.447 -11.553,-10.447 -6.376,0 -11.549,4.682 -11.549,10.447 0,5.77 5.173,10.449 11.549,10.449 6.379,0 11.553,-4.681 11.553,-10.449 z"
   style="fill-opacity:0"
   inkscape:connector-curvature="0" />
	
		<ellipse
   id="ellipse2413"
   sodipodi:ry="10.449"
   sodipodi:rx="11.553"
   sodipodi:cy="69.002998"
   sodipodi:cx="160.02299"
   cx="160.02299"
   cy="69.002998"
   rx="11.553"
   ry="10.449"
   style="fill-opacity:0"
   d="m 171.576,69.002998 c 0,5.770824 -5.17246,10.449001 -11.55301,10.449001 -6.38054,0 -11.553,-4.678177 -11.553,-10.449001 0,-5.770823 5.17246,-10.449 11.553,-10.449 6.38055,0 11.55301,4.678177 11.55301,10.449 z">
	</ellipse>
</g>
</svg>

<?xml version="1.0" encoding="UTF-8" standalone="no"?>
<!-- Generator: Adobe Illustrator 14.0.0, SVG Export Plug-In . SVG Version: 6.00 Build 43363)  -->

<svg
   xmlns:dc="http://purl.org/dc/elements/1.1/"
   xmlns:cc="http://creativecommons.org/ns#"
   xmlns:rdf="http://www.w3.org/1999/02/22-rdf-syntax-ns#"
   xmlns:svg="http://www.w3.org/2000/svg"
   xmlns="http://www.w3.org/2000/svg"
   xmlns:sodipodi="http://sodipodi.sourceforge.net/DTD/sodipodi-0.dtd"
   xmlns:inkscape="http://www.inkscape.org/namespaces/inkscape"
   version="1.1"
   id="svg8829"
   sodipodi:version="0.32"
   inkscape:version="0.47 r22583"
   sodipodi:docname="Harbour.svg"
   inkscape:export-xdpi="89.361702"
   inkscape:export-ydpi="89.361702"
   inkscape:export-filename="C:\Dokumente und Einstellungen\rolf\Eigene Dateien\Eigene Karten\Harbour.png"
   inkscape:output_extension="org.inkscape.output.svg.inkscape"
   x="0px"
   y="0px"
   width="320px"
   height="320px"
   viewBox="0 0 320 320"
   enable-background="new 0 0 320 320"
   xml:space="preserve"><metadata
   id="metadata14"><rdf:RDF><cc:Work
       rdf:about=""><dc:format>image/svg+xml</dc:format><dc:type
         rdf:resource="http://purl.org/dc/dcmitype/StillImage" /></cc:Work></rdf:RDF></metadata>
<sodipodi:namedview
   id="base"
   inkscape:window-height="1088"
   inkscape:pageshadow="2"
   inkscape:pageopacity="0.0"
   inkscape:window-width="1920"
   inkscape:window-x="1440"
   inkscape:window-y="0"
   inkscape:current-layer="g2415"
   showgrid="true"
   guidetolerance="10.0"
   inkscape:zoom="2.0820366"
   gridtolerance="10.0"
   objecttolerance="10.0"
   borderopacity="1.0"
   bordercolor="#666666"
   inkscape:cx="174.05232"
   pagecolor="#ffffff"
   inkscape:cy="117.85248"
   inkscape:window-maximized="0">
	<inkscape:grid
   type="xygrid"
   id="grid3611"
   empspacing="5"
   visible="true"
   enabled="true"
   snapvisiblegridlinesonly="true" /></sodipodi:namedview>
<defs
   id="defs4">
	
	
		<inkscape:perspective
   id="perspective15"
   inkscape:persp3d-origin="90 : 60 : 1"
   sodipodi:type="inkscape:persp3d"
   inkscape:vp_x="0 : 90 : 1"
   inkscape:vp_y="0 : 1000 : 0"
   inkscape:vp_z="180 : 90 : 1">
		</inkscape:perspective>
</defs>
<g
   id="g2415">
	<path
   id="path2421"
   d="m 312.63269,160.0313 c 0,84.21378 -68.31706,152.54396 -152.51263,152.54396 -84.195532,0 -152.512607,-68.33018 -152.512607,-152.54396 0,-84.213726 68.317075,-152.5439217 152.512607,-152.5439217 84.19557,0 152.51263,68.3301957 152.51263,152.5439217 z"
   style="fill:none;stroke:#a30075;stroke-width:15;stroke-miterlimit:4;stroke-dasharray:none" />
	<path
   id="path2417"
   d="M 257.47734,185.7612 L 248.61559,235.72357 L 236.46755,224.49803 C 230.40926,231.22026 223.51023,236.9234 215.22667,242.12043 C 201.22997,250.89938 185.91071,255.86388 170.50391,257.29625 L 168.9296,271.9171 L 152.7332,271.9171 L 151.11366,257.29625 C 126.1735,254.89461 102.38778,243.36815 84.942547,223.98996 L 71.452265,235.72357 L 64.211035,185.07139 L 99.632491,211.16789 L 90.609469,219.02254 C 105.99462,232.25889 127.30335,241.10623 151.18643,242.99784 L 154.3793,109.07797 L 120.57148,109.07797 L 120.57148,98.936015 L 154.30652,99.306313 L 154.30652,90.874224 C 143.87341,88.589839 136.12479,80.157744 136.12479,70.087105 C 136.12479,58.240156 146.80866,48.654143 159.99803,48.654143 C 173.16578,48.654143 183.85751,58.240156 183.85751,70.087105 C 183.85751,79.928133 176.456,88.242003 166.38376,90.762839 L 166.38376,99.053258 L 201.11493,98.936015 L 201.11493,109.07797 L 167.30908,109.07797 L 170.57077,242.99784 C 194.28571,241.10428 215.43218,232.32533 230.77408,219.20623 L 222.05293,211.16594 L 257.47734,185.7612 z"
   style="fill:#a30075;stroke:#a30075;stroke-width:4.90096569" />
	
		<ellipse
   id="ellipse2419"
   inkscape:transform-center-x="5.3433773"
   sodipodi:ry="10.449"
   sodipodi:rx="11.553"
   sodipodi:cy="69.002998"
   sodipodi:cx="160.02299"
   cx="160.02299"
   cy="69.002998"
   rx="11.553"
   ry="10.449"
   transform="matrix(0.9833283,0,0,0.977068,2.6674639,2.667464)"
   style="fill:none;stroke:#ffffff;stroke-width:5">
	</ellipse>
</g>
<g
   id="g2409"
   transform="matrix(0.9833283,0,0,0.977068,2.6674639,2.667464)">
	<path
   id="path2411"
   d="M 259.13,187.391 L 250.118,238.526 L 237.764,227.037 C 231.603,233.917 224.587,239.754 216.163,245.073 C 201.929,254.058 186.35,259.139 170.682,260.605 L 169.081,275.569 L 152.61,275.569 L 150.963,260.605 C 125.6,258.147 101.411,246.35 83.67,226.517 L 69.951,238.526 L 62.587,186.685 L 98.609,213.394 L 89.433,221.433 C 105.079,234.98 126.749,244.035 151.037,245.971 L 154.284,108.908 L 119.903,108.908 L 119.903,98.528 L 154.21,98.907 L 154.21,90.277 C 143.6,87.939 135.72,79.309 135.72,69.002 C 135.72,56.877 146.585,47.066 159.998,47.066 C 173.389,47.066 184.262,56.877 184.262,69.002 C 184.262,79.074 176.735,87.583 166.492,90.163 L 166.492,98.648 L 201.812,98.528 L 201.812,108.908 L 167.433,108.908 L 170.75,245.971 C 194.867,244.033 216.372,235.048 231.974,221.621 L 223.105,213.392 L 259.13,187.391 z M 171.576,69.003 C 171.576,63.236 166.403,58.556 160.023,58.556 C 153.647,58.556 148.474,63.238 148.474,69.003 C 148.474,74.773 153.647,79.452 160.023,79.452 C 166.402,79.452 171.576,74.771 171.576,69.003 z"
   style="fill-opacity:0" />
	
		<ellipse
   id="ellipse2413"
   sodipodi:ry="10.449"
   sodipodi:rx="11.553"
   sodipodi:cy="69.002998"
   sodipodi:cx="160.02299"
   cx="160.02299"
   cy="69.002998"
   rx="11.553"
   ry="10.449"
   style="fill-opacity:0"
   d="m 171.576,69.002998 c 0,5.770824 -5.17246,10.449001 -11.55301,10.449001 -6.38054,0 -11.553,-4.678177 -11.553,-10.449001 0,-5.770823 5.17246,-10.449 11.553,-10.449 6.38055,0 11.55301,4.678177 11.55301,10.449 z">
	</ellipse>
</g>
</svg>
